X:203
T:The Drummer
T:The Piper o' Dundee
Q:1/2=120
M:4/4
L:1/4
S:Colin Hume's website,  colinhume.com  - chords can also be printed below the stave.
K:Am
P:A
|:E | "Am"A3/B/ cA | "Am"E2 E^F | "G"G3/A/ Bc | "G"dB GB |\
"Am"A3/B/ cA | "Am"E2 Ef | "E7"e3/d/ cB | "Am"A3 :|
P:B
|:B | "C"c3/c/ ce | "G"d2 de | "C"c2 ce | "G"dB GB |\
"Am"c3/c/ ce | "Dm"d2 df | "E7"e3/d/ cB | "Am"A3 :|

